X:588
T:The Curly-Headed Ploughboy
S:Colin Hume's website,  colinhume.com  - chords can also be printed below the stave.
Q:1/2=120
M:2/2
L:1/4
N:For the dance "The Ploughboy"
K:G
P:A
|: d/>c/ | "G"Bd GB | "C"E2 "G"DG | "D7"F/G/A/B/ cB | "G"B2 "D7"Ad/>c/ |\
"G"Bd GB | "C"E2 "G"DG | "D7"F/G/A/B/ cF | "G"G3 :|
P:B
K:D
|: d | "A7"cc c/A/B/c/ | "D"dd de/d/ | "A7"cc c/A/B/c/ | "D"d3 e/d/ |\
"A7"cc c/A/B/c/ | "D"dA "G"BG | "A7"FE AC | "D"D3 :|

